src/components/fit-check/icons/not-fit-mask.svg

<svg width="1609" height="959" viewBox="0 0 1609 959" fill="none" xmlns="http://www.w3.org/2000/svg">
<path d="M1231.5 241.547C1253 231.548 1267 231.867 1324 250.547C1381 269.228 1447 293.048 1507.36 314.306C1526.24 322.836 1542.88 334.298 1557.27 348.694C1571.67 363.095 1583.06 379.661 1591.45 398.396C1599.83 417.131 1604.02 437.345 1604.02 459.037L1604.02 793.021C1604.02 814.712 1599.82 835.181 1591.43 854.423C1583.03 873.671 1571.69 890.432 1557.41 904.709C1543.13 918.992 1526.5 930.201 1507.51 938.335C1488.53 946.47 1468.2 950.538 1446.5 950.538L1052.02 950.539C1039.2 950.539 1026.99 948.007 1015.39 943.492C1003.79 938.977 993.585 932.485 984.77 924.015C968.471 908.354 959.951 888.663 959.212 865.931C958.472 843.2 965.775 822.582 981.117 804.073C966.762 786.572 959.582 767.47 959.582 746.764C959.582 726.058 966.732 706.93 981.028 689.375C966.732 671.821 959.829 652.69 960.321 631.986C960.814 611.281 967.964 592.376 981.768 575.272C867.5 575.272 762.037 581.393 730.499 563.571C699.999 541.127 690.955 508.672 690.954 474.544C690.954 440.417 722.999 409.709 739.999 397.627C756.999 385.546 785.953 385.719 798.5 385.546L1142 385.549C1165.5 342.547 1210 251.547 1231.5 241.547ZM1288.5 300.547C1250 285.547 1246.06 314.306 1226 348.694C1218.25 361.98 1211.73 374.456 1206.01 385.544H1335.5V449.547L1335 449.544L1156.27 448.604C1153.76 448.959 1150.9 449.148 1147.58 449.148L777 449.146C772.07 449.146 767.749 450.017 764.037 451.756C760.33 453.492 756.918 455.916 753.802 459.033C747.575 465.259 744.462 472.563 744.462 480.944C744.462 489.324 744.462 495.128 747.67 501.128C750.878 507.129 760.609 513.358 764.799 514.573C768.989 515.788 956.375 516.399 960.321 516.399H1083.98V602.954L1053.5 602.955C1048.57 602.955 1044.13 603.855 1040.19 605.655C1036.24 607.455 1032.79 609.706 1029.84 612.407C1023.92 617.808 1020.96 624.56 1020.96 632.662C1020.96 640.763 1023.92 647.515 1029.84 652.916C1032.79 655.617 1036.25 657.642 1040.19 658.993C1044.13 660.343 1048.08 661.018 1052.02 661.018H1083.98V717.732L1053.5 717.733C1049.56 717.733 1045.41 718.594 1041.05 720.318C1036.7 722.046 1032.96 724.336 1029.84 727.185C1023.92 732.586 1020.96 739.338 1020.96 747.44C1020.96 755.542 1023.92 762.293 1029.84 767.695C1032.79 770.395 1036 772.421 1039.45 773.771C1042.9 775.121 1047.09 775.796 1052.02 775.796H1083.98V832.51L1052.02 832.511C1047.09 832.511 1042.65 833.411 1038.71 835.211C1034.77 837.011 1031.56 839.037 1029.1 841.288C1022.19 847.589 1018.74 854.34 1018.74 861.542C1018.74 868.745 1022.19 875.496 1029.1 881.798C1031.56 884.049 1035.01 886.073 1039.45 887.874C1043.89 889.676 1048.08 890.575 1052.02 890.575L1447.24 887.679C1460.06 887.679 1472.18 885.172 1483.61 880.158C1495.02 875.15 1504.84 868.536 1513.06 860.317C1521.44 851.935 1528.22 841.953 1533.4 830.367C1538.57 818.78 1541.16 806.577 1541.16 793.76L1541.16 458.297C1541.16 445.48 1538.57 433.277 1533.39 421.691C1528.22 410.105 1521.44 400.122 1513.06 391.741C1504.84 383.522 1495.02 376.908 1483.6 371.9C1419 348.694 1327 315.547 1288.5 300.547Z" fill="black"/>
<path d="M376.52 6.54348C355.02 -3.45642 341.02 -3.13692 284.021 15.5435C227.021 34.224 161.02 58.043 100.665 79.3013C81.7823 87.8309 65.1434 99.2936 50.748 113.689C36.3467 128.09 24.9569 144.657 16.5752 163.392C8.19361 182.127 4.00254 202.34 4.00293 224.032L4 558.016C4 579.708 8.19877 600.176 16.5937 619.418C24.9946 638.667 36.3343 655.429 50.6113 669.706C64.8943 683.989 81.5249 695.197 100.507 703.332C119.489 711.466 139.825 715.534 161.517 715.534L556 715.535C568.817 715.535 581.028 713.003 592.628 708.488C604.228 703.973 614.437 697.48 623.252 689.01C639.551 673.349 648.07 653.658 648.81 630.927C649.549 608.196 642.246 587.577 626.904 569.068C641.26 551.568 648.439 532.466 648.439 511.76C648.439 491.054 641.289 471.925 626.993 454.371C641.289 436.816 648.193 417.686 647.7 396.982C647.208 376.277 640.058 357.373 626.254 340.268C740.521 340.268 845.985 346.389 877.522 328.567C908.023 306.123 917.067 273.668 917.067 239.54C917.068 205.412 885.023 174.704 868.022 162.623C851.022 150.541 822.069 150.714 809.521 150.542L466.02 150.545C442.52 107.544 398.02 16.5435 376.52 6.54348ZM319.52 65.5435C358.019 50.5435 361.957 79.3017 382.02 113.689C389.771 126.975 396.289 139.452 402.012 150.541H272.521V214.543L273.023 214.541L451.756 213.6C454.257 213.955 457.121 214.143 460.439 214.143L831.021 214.141C835.952 214.142 840.273 215.012 843.984 216.751C847.692 218.487 851.103 220.913 854.22 224.029C860.446 230.255 863.56 237.559 863.56 245.94C863.56 254.32 863.559 260.123 860.352 266.124C857.144 272.124 847.413 278.353 843.223 279.568C839.033 280.783 651.646 281.394 647.7 281.394H524.037V367.95H554.521C559.452 367.95 563.888 368.851 567.832 370.651C571.777 372.451 575.228 374.701 578.186 377.402C584.102 382.803 587.06 389.555 587.06 397.657C587.06 405.759 584.102 412.51 578.186 417.912C575.227 420.612 571.775 422.638 567.832 423.989C563.889 425.339 559.943 426.014 556 426.014H524.037V482.727L554.521 482.728C558.464 482.728 562.614 483.59 566.967 485.314C571.324 487.042 575.065 489.331 578.186 492.18C584.102 497.581 587.06 504.333 587.06 512.435C587.06 520.537 584.102 527.289 578.186 532.69C575.227 535.391 572.023 537.417 568.571 538.767C565.119 540.117 560.931 540.793 556 540.793L524.037 540.792V597.505L556 597.506C560.931 597.506 565.367 598.407 569.312 600.207C573.256 602.007 576.459 604.033 578.925 606.284C585.827 612.586 589.278 619.336 589.278 626.539C589.278 633.741 585.827 640.492 578.925 646.793C576.459 649.044 573.008 651.068 568.571 652.87C564.134 654.671 559.943 655.571 556 655.571L160.777 652.674C147.96 652.674 135.839 650.168 124.415 645.154C112.997 640.146 103.179 633.531 94.96 625.312C86.5785 616.93 79.8006 606.948 74.624 595.362C69.4475 583.775 66.8585 571.573 66.8584 558.756L66.8623 223.293C66.8619 210.475 69.45 198.273 74.627 186.687C79.8042 175.101 86.5822 165.118 94.9639 156.736C103.183 148.517 113.002 141.904 124.419 136.895C189.02 113.689 281.02 80.5435 319.52 65.5435Z" fill="black"/>
</svg>

<svg xmlns="http://www.w3.org/2000/svg" width="1609" height="959" fill="none"><path fill="#000" d="M1231.5 241.5c21.5-10 35.5-9.6 92.5 9 57 18.7 123 42.5 183.4 63.8a167.3 167.3 0 0 1 84 84.1c8.4 18.7 12.6 39 12.6 60.6v334a152 152 0 0 1-12.6 61.4 157.5 157.5 0 0 1-84 84c-18.9 8-39.2 12.1-60.9 12.1H1052c-12.8 0-25-2.5-36.6-7a91.8 91.8 0 0 1-30.6-19.5 81.7 81.7 0 0 1-25.6-58 89.7 89.7 0 0 1 22-62 88.5 88.5 0 0 1-21.6-57.2 89 89 0 0 1 21.4-57.4 85.6 85.6 0 0 1-20.7-57.4 91.8 91.8 0 0 1 21.5-56.7c-114.3 0-219.8 6-251.3-11.7-30.5-22.5-39.5-55-39.5-89 0-34.2 32-64.9 49-77 17-12 46-11.9 58.5-12H1142c23.5-43 68-134 89.5-144Zm57 59c-38.5-15-42.4 13.8-62.5 48.2a793.7 793.7 0 0 0-20 36.8h129.5v64h-.5l-178.7-.9c-2.5.4-5.4.5-8.7.5H777a30.3 30.3 0 0 0-23.2 10 30 30 0 0 0-9.3 21.8c0 8.4 0 14.2 3.2 20.2s13 12.3 17.1 13.5c4.2 1.2 191.6 1.8 195.5 1.8H1084V603h-30.5c-5 0-9.4.9-13.3 2.7-4 1.8-7.4 4-10.4 6.7-5.9 5.4-8.8 12.2-8.8 20.3 0 8 3 14.8 8.8 20.2 3 2.7 6.5 4.7 10.4 6 4 1.4 7.9 2.1 11.8 2.1h32v56.7h-30.5a36.3 36.3 0 0 0-23.7 9.5c-5.9 5.4-8.8 12.1-8.8 20.2s3 14.9 8.8 20.3c3 2.7 6.2 4.7 9.7 6 3.4 1.4 7.6 2.1 12.5 2.1h32v56.7h-32c-5 0-9.3 1-13.3 2.7-4 1.8-7.1 3.8-9.6 6-7 6.4-10.4 13.1-10.4 20.3 0 7.2 3.5 14 10.4 20.3 2.5 2.2 6 4.3 10.4 6 4.4 1.9 8.6 2.8 12.5 2.8l395.2-3c12.9 0 25-2.4 36.4-7.4a95.4 95.4 0 0 0 57.6-86.4V458.3c0-12.8-2.6-25-7.8-36.6a95.3 95.3 0 0 0-49.8-49.8c-64.6-23.2-156.6-56.4-195.1-71.4Z"/><path fill="#000" d="M376.5 6.5C355-3.5 341-3 284 15.5 227 34.2 161 58 100.7 79.3a167.4 167.4 0 0 0-84.1 84C8.2 182.2 4 202.4 4 224v334c0 21.7 4.2 42.2 12.6 61.4a157.7 157.7 0 0 0 84 84c18.9 8 39.2 12.1 61 12.1H556c12.8 0 25-2.5 36.6-7a91.8 91.8 0 0 0 30.7-19.5 81.8 81.8 0 0 0 25.5-58 89.7 89.7 0 0 0-21.9-62 88.4 88.4 0 0 0 21.5-57.2 89 89 0 0 0-21.4-57.4 85.6 85.6 0 0 0 20.7-57.4 91.8 91.8 0 0 0-21.4-56.7c114.2 0 219.7 6 251.2-11.7 30.5-22.5 39.6-55 39.6-89 0-34.2-32-64.9-49-77-17-12-46-11.9-58.6-12H466c-23.5-43-68-134-89.5-144Zm-57 59c38.5-15 42.5 13.8 62.5 48.2a795.2 795.2 0 0 1 20 36.8H272.5v64h.5l178.8-.9c2.5.4 5.3.5 8.6.5H831a30.3 30.3 0 0 1 23.2 10 30 30 0 0 1 9.4 21.8c0 8.4 0 14.2-3.2 20.2-3.3 6-13 12.3-17.2 13.5-4.2 1.2-191.6 1.8-195.5 1.8H524V368h30.5c5 0 9.4.9 13.3 2.7 4 1.8 7.4 4 10.4 6.7 5.9 5.4 8.9 12.2 8.9 20.3 0 8-3 14.8-9 20.2-2.9 2.7-6.3 4.7-10.3 6-4 1.4-7.9 2.1-11.8 2.1h-32v56.7h30.5c4 0 8.1.9 12.5 2.6 4.3 1.7 8 4 11.2 6.9 5.9 5.4 8.9 12.1 8.9 20.2s-3 14.9-9 20.3a31 31 0 0 1-9.5 6c-3.5 1.4-7.7 2-12.6 2h-32v56.8h32c5 0 9.4 1 13.3 2.7 4 1.8 7.2 3.8 9.6 6 7 6.4 10.4 13.1 10.4 20.3 0 7.2-3.5 14-10.4 20.3-2.4 2.2-5.9 4.3-10.3 6a33.5 33.5 0 0 1-12.6 2.8l-395.2-3c-12.8 0-25-2.4-36.4-7.4A95.3 95.3 0 0 1 67 558.8V223.3c0-12.8 2.5-25 7.7-36.6a95.3 95.3 0 0 1 49.8-49.8C189 113.7 281 80.5 319.5 65.5Z"/></svg>
